www/assets/icons/alt_route.svg

<svg xmlns="http://www.w3.org/2000/svg" width="24" height="24" viewBox="0 0 24 24" fill='currentColor'><path d="m9.78 11.16-1.42 1.42a7.3 7.3 0 0 1-1.79-2.94l1.94-.49c.32.89.77 1.5 1.27 2.01M11 6 7 2 3 6h3.02c.02.81.08 1.54.19 2.17l1.94-.49C8.08 7.2 8.03 6.63 8.02 6zm10 0-4-4-4 4h2.99c-.1 3.68-1.28 4.75-2.54 5.88-.5.44-1.01.92-1.45 1.55-.34-.49-.73-.88-1.13-1.24L9.46 13.6c.93.85 1.54 1.54 1.54 3.4v5h2v-5c0-2.02.71-2.66 1.79-3.63 1.38-1.24 3.08-2.78 3.2-7.37z"/></svg>

<svg width="24" height="24" viewBox="0 0 24 24" xmlns="http://www.w3.org/2000/svg" fill='currentColor'><path d="M9.78 11.16L8.36 12.58C7.68 11.89 7.02 11 6.57 9.64L8.51 9.15C8.83 10.04 9.28 10.65 9.78 11.16ZM11 6L7 2L3 6H6.02C6.04 6.81 6.1 7.54 6.21 8.17L8.15 7.68C8.08 7.2 8.03 6.63 8.02 6H11ZM21 6L17 2L13 6H15.99C15.89 9.68 14.71 10.75 13.45 11.88C12.95 12.32 12.44 12.8 12 13.43C11.66 12.94 11.27 12.55 10.87 12.19L9.46 13.6C10.39 14.45 11 15.14 11 17V22H13V17C13 14.98 13.71 14.34 14.79 13.37C16.17 12.13 17.87 10.59 17.99 6H21Z"/></svg>
